flaticon/medical/iris.svg

<svg xmlns="http://www.w3.org/2000/svg" width="32" height="32" viewBox="0 0 24 24">
    <path d="M 18.976562 7.917969 L 18.976562 7.914062 L 17.304688 6.546875 C 17.269531 6.511719 17.234375 6.480469 17.199219 6.449219 C 17.042969 6.300781 16.882812 6.152344 16.71875 6.015625 C 16.675781 5.980469 16.628906 5.953125 16.585938 5.917969 C 16.421875 5.789062 16.257812 5.664062 16.085938 5.550781 C 16.070312 5.539062 16.050781 5.53125 16.035156 5.519531 C 14.78125 4.703125 13.320312 4.257812 11.785156 4.257812 C 11.5625 4.257812 11.339844 4.273438 11.121094 4.292969 C 11.09375 4.292969 11.066406 4.292969 11.039062 4.296875 C 10.84375 4.316406 10.648438 4.347656 10.457031 4.378906 C 10.402344 4.386719 10.347656 4.394531 10.292969 4.402344 C 10.097656 4.441406 9.910156 4.488281 9.722656 4.539062 C 9.667969 4.554688 9.613281 4.566406 9.558594 4.582031 C 9.375 4.636719 9.199219 4.703125 9.023438 4.769531 C 8.964844 4.789062 8.902344 4.808594 8.839844 4.832031 C 8.675781 4.898438 8.515625 4.976562 8.355469 5.058594 C 8.289062 5.089844 8.21875 5.117188 8.148438 5.15625 C 8 5.234375 7.855469 5.324219 7.714844 5.410156 C 7.640625 5.457031 7.5625 5.496094 7.488281 5.546875 C 7.351562 5.636719 7.21875 5.742188 7.085938 5.839844 C 7.011719 5.898438 6.9375 5.945312 6.863281 6.003906 C 6.703125 6.136719 6.550781 6.28125 6.398438 6.425781 C 6.363281 6.460938 6.324219 6.492188 6.285156 6.527344 L 4.257812 8.308594 L 0 12.042969 L 4.527344 15.957031 L 4.53125 15.957031 L 6.265625 17.457031 C 6.839844 18.027344 7.476562 18.492188 8.15625 18.847656 C 9.289062 19.445312 10.535156 19.742188 11.785156 19.742188 C 13.28125 19.742188 14.773438 19.316406 16.070312 18.464844 C 16.5 18.183594 16.910156 17.851562 17.289062 17.472656 L 24 12.042969 Z M 22.722656 12.039062 L 19.5 14.644531 C 19.820312 13.761719 19.984375 12.824219 19.984375 11.875 C 19.984375 11.070312 19.863281 10.269531 19.632812 9.5 Z M 3.691406 9.878906 C 3.527344 10.53125 3.441406 11.199219 3.441406 11.875 C 3.441406 12.683594 3.566406 13.488281 3.804688 14.261719 L 1.230469 12.039062 Z M 16.734375 16.886719 C 14.003906 19.617188 9.566406 19.617188 6.816406 16.867188 L 5.164062 15.441406 C 4.5625 14.339844 4.246094 13.109375 4.246094 11.875 C 4.246094 10.816406 4.472656 9.78125 4.917969 8.800781 L 5.960938 7.886719 L 6.839844 7.117188 C 6.875 7.078125 6.914062 7.050781 6.949219 7.015625 C 7.085938 6.886719 7.21875 6.757812 7.363281 6.640625 C 7.40625 6.605469 7.453125 6.578125 7.496094 6.542969 C 7.640625 6.433594 7.78125 6.320312 7.933594 6.222656 C 7.949219 6.210938 7.964844 6.203125 7.980469 6.195312 C 10.484375 4.570312 13.8125 4.710938 16.199219 6.636719 C 16.207031 6.644531 16.21875 6.652344 16.230469 6.660156 C 16.375 6.777344 16.515625 6.910156 16.652344 7.042969 C 16.6875 7.078125 16.726562 7.105469 16.761719 7.144531 L 18.339844 8.4375 C 18.886719 9.496094 19.179688 10.679688 19.179688 11.875 C 19.179688 13.273438 18.785156 14.640625 18.035156 15.832031 L 16.765625 16.859375 Z M 16.734375 16.886719"/>
    <path d="M14.738281 11.523438L14.304688 11.523438C14.292969 11.445312 14.277344 11.371094 14.261719 11.292969L14.667969 11.136719C14.875 11.058594 14.976562 10.824219 14.898438 10.613281 14.816406 10.40625 14.582031 10.304688 14.375 10.382812L13.96875 10.542969C13.910156 10.4375 13.84375 10.335938 13.769531 10.238281L14.078125 9.929688C14.238281 9.769531 14.238281 9.515625 14.078125 9.359375 13.921875 9.199219 13.667969 9.199219 13.507812 9.359375L13.199219 9.667969C13.136719 9.621094 13.074219 9.578125 13.007812 9.535156L13.183594 9.136719C13.273438 8.933594 13.183594 8.695312 12.980469 8.605469 12.773438 8.515625 12.535156 8.605469 12.445312 8.808594L12.269531 9.207031C12.15625 9.175781 12.035156 9.152344 11.914062 9.132812L11.914062 8.699219C11.914062 8.476562 11.734375 8.292969 11.511719 8.292969 11.289062 8.292969 11.109375 8.476562 11.109375 8.699219L11.109375 9.132812C11.03125 9.144531 10.953125 9.160156 10.878906 9.175781L10.722656 8.769531C10.640625 8.5625 10.40625 8.460938 10.199219 8.539062 9.992188 8.621094 9.886719 8.855469 9.96875 9.0625L10.125 9.46875C10.019531 9.527344 9.921875 9.59375 9.824219 9.667969L9.515625 9.359375C9.355469 9.199219 9.101562 9.199219 8.945312 9.359375 8.785156 9.515625 8.785156 9.773438 8.945312 9.929688L9.253906 10.238281C9.207031 10.300781 9.164062 10.363281 9.121094 10.429688L8.722656 10.253906C8.519531 10.164062 8.277344 10.257812 8.1875 10.460938 8.097656 10.664062 8.191406 10.902344 8.394531 10.992188L8.792969 11.167969C8.761719 11.285156 8.738281 11.402344 8.71875 11.523438L8.28125 11.523438C8.058594 11.523438 7.878906 11.703125 7.878906 11.925781 7.878906 12.148438 8.058594 12.332031 8.28125 12.332031L8.71875 12.332031C8.730469 12.40625 8.742188 12.484375 8.761719 12.558594L8.355469 12.714844C8.148438 12.796875 8.042969 13.03125 8.125 13.238281 8.1875 13.398438 8.339844 13.496094 8.5 13.496094 8.550781 13.496094 8.597656 13.488281 8.648438 13.46875L9.054688 13.3125C9.113281 13.417969 9.179688 13.519531 9.253906 13.617188L8.945312 13.925781C8.785156 14.082031 8.785156 14.339844 8.945312 14.496094 9.023438 14.574219 9.125 14.613281 9.230469 14.613281 9.332031 14.613281 9.4375 14.574219 9.515625 14.496094L9.824219 14.1875C9.886719 14.234375 9.949219 14.277344 10.015625 14.320312L9.839844 14.71875C9.75 14.921875 9.839844 15.160156 10.042969 15.25 10.097656 15.273438 10.152344 15.285156 10.207031 15.285156 10.363281 15.285156 10.511719 15.195312 10.578125 15.042969L10.753906 14.644531C10.867188 14.679688 10.988281 14.703125 11.109375 14.71875L11.109375 15.15625C11.109375 15.378906 11.289062 15.558594 11.511719 15.558594 11.734375 15.558594 11.914062 15.378906 11.914062 15.15625L11.914062 14.71875C11.992188 14.707031 12.070312 14.695312 12.144531 14.679688L12.300781 15.082031C12.363281 15.242188 12.515625 15.339844 12.679688 15.339844 12.726562 15.339844 12.777344 15.332031 12.824219 15.316406 13.03125 15.234375 13.136719 15 13.054688 14.792969L12.898438 14.386719C13.003906 14.328125 13.101562 14.257812 13.199219 14.1875L13.507812 14.496094C13.585938 14.574219 13.691406 14.613281 13.792969 14.613281 13.898438 14.613281 14 14.574219 14.078125 14.496094 14.238281 14.339844 14.238281 14.082031 14.078125 13.925781L13.769531 13.617188C13.816406 13.554688 13.859375 13.492188 13.902344 13.425781L14.300781 13.601562C14.355469 13.625 14.410156 13.636719 14.464844 13.636719 14.617188 13.636719 14.765625 13.546875 14.832031 13.394531 14.921875 13.191406 14.832031 12.953125 14.628906 12.863281L14.230469 12.6875C14.261719 12.570312 14.285156 12.453125 14.304688 12.332031L14.738281 12.332031C14.960938 12.332031 15.144531 12.152344 15.144531 11.929688 15.144531 11.703125 14.960938 11.523438 14.738281 11.523438zM11.511719 13.945312C10.398438 13.945312 9.492188 13.039062 9.492188 11.925781 9.492188 10.8125 10.398438 9.910156 11.511719 9.910156 12.625 9.910156 13.527344 10.8125 13.527344 11.925781 13.527344 13.039062 12.625 13.945312 11.511719 13.945312zM9.492188 7.082031C9.535156 7.082031 9.574219 7.078125 9.617188 7.0625 10.097656 6.910156 10.597656 6.832031 11.105469 6.832031 11.328125 6.832031 11.511719 6.648438 11.511719 6.425781 11.511719 6.203125 11.328125 6.023438 11.105469 6.023438 10.511719 6.023438 9.929688 6.113281 9.367188 6.296875 9.15625 6.363281 9.039062 6.589844 9.109375 6.804688 9.164062 6.972656 9.324219 7.082031 9.492188 7.082031zM8.15625 7.632812C8.195312 7.648438 8.238281 7.652344 8.28125 7.652344 8.355469 7.652344 8.433594 7.632812 8.5 7.589844 8.851562 7.363281 8.679688 7.042969 8.671875 7.027344 8.644531 6.980469 8.515625 6.777344 8.234375 6.832031 8.1875 6.839844 8.140625 6.851562 8.097656 6.875 8.089844 6.878906 8.082031 6.882812 8.074219 6.886719 7.890625 6.996094 7.785156 7.246094 7.878906 7.433594 7.933594 7.542969 8.039062 7.609375 8.15625 7.632812zM7.027344 7.761719C6.015625 8.816406 5.457031 10.207031 5.457031 11.671875 5.457031 11.898438 5.636719 12.078125 5.859375 12.078125 6.082031 12.078125 6.265625 11.898438 6.265625 11.671875 6.265625 10.417969 6.742188 9.226562 7.609375 8.320312 7.765625 8.160156 7.757812 7.902344 7.597656 7.75 7.4375 7.597656 7.183594 7.601562 7.027344 7.761719zM7.027344 7.761719"/>
</svg>

<svg xmlns="http://www.w3.org/2000/svg" width="32" height="32" viewBox="0 0 24 24">
    <path d="M18.977 7.918v-.004l-1.672-1.367c-.035-.035-.07-.067-.106-.098a10.023 10.023 0 0 0-.48-.433c-.043-.036-.09-.063-.133-.098a7.453 7.453 0 0 0-.5-.367c-.016-.012-.035-.02-.05-.031a7.756 7.756 0 0 0-4.25-1.262c-.223 0-.446.015-.665.035-.027 0-.055 0-.082.004-.195.02-.39.05-.582.082l-.164.023c-.195.04-.383.086-.57.137-.055.016-.11.027-.164.043-.184.055-.36.121-.536.188-.058.02-.12.039-.183.062a6.032 6.032 0 0 0-.485.227c-.066.03-.136.058-.207.097-.148.078-.293.168-.433.254-.074.047-.152.086-.227.137-.136.09-.27.195-.402.293-.074.058-.149.105-.223.164-.16.133-.312.277-.465.422-.035.035-.074.066-.113.101L4.258 8.31 0 12.043l4.527 3.914h.004l1.735 1.5a7.837 7.837 0 0 0 1.89 1.39 7.768 7.768 0 0 0 3.63.895 7.798 7.798 0 0 0 4.284-1.277c.43-.281.84-.613 1.22-.992l6.71-5.43zm3.746 4.121L19.5 14.645a8.12 8.12 0 0 0 .484-2.77c0-.805-.12-1.605-.351-2.375zM3.69 9.88a8.172 8.172 0 0 0-.25 1.996c0 .809.125 1.613.364 2.387L1.23 12.039zm13.043 7.008c-2.73 2.73-7.168 2.73-9.918-.02l-1.652-1.426a7.458 7.458 0 0 1-.918-3.566c0-1.059.227-2.094.672-3.074l1.043-.914.879-.77c.035-.039.074-.066.11-.101.136-.13.269-.258.413-.375.043-.036.09-.063.133-.098.145-.11.285-.223.438-.32a7.023 7.023 0 0 1 8.297.438c.144.116.285.25.421.382.035.035.075.062.11.102l1.578 1.293a7.51 7.51 0 0 1 .84 3.437 7.416 7.416 0 0 1-1.145 3.957l-1.27 1.027zm0 0"/>
    <path d="M14.738 11.523h-.433c-.012-.078-.028-.152-.043-.23l.406-.156a.406.406 0 0 0 .23-.524.409.409 0 0 0-.523-.23l-.406.16a2.549 2.549 0 0 0-.2-.305l.31-.308a.399.399 0 0 0 0-.57.399.399 0 0 0-.571 0l-.309.308a3.329 3.329 0 0 0-.191-.133l.176-.398a.402.402 0 0 0-.204-.532.405.405 0 0 0-.535.204l-.175.398a3.366 3.366 0 0 0-.356-.074v-.434a.405.405 0 0 0-.402-.406.405.405 0 0 0-.403.406v.434a4.022 4.022 0 0 0-.23.043l-.156-.406a.409.409 0 0 0-.524-.23.405.405 0 0 0-.23.523l.156.406a2.505 2.505 0 0 0-.3.199l-.31-.309a.399.399 0 0 0-.57 0 .399.399 0 0 0 0 .57l.309.31c-.047.062-.09.124-.133.19l-.398-.175a.404.404 0 1 0-.328.738l.398.176a3.585 3.585 0 0 0-.074.355H8.28a.405.405 0 0 0 0 .809h.438c.011.074.023.152.043.227l-.407.156a.405.405 0 0 0 .293.754l.407-.156c.058.105.125.207.199.304l-.309.309a.399.399 0 0 0 0 .57.405.405 0 0 0 .57 0l.31-.308c.062.046.124.09.19.132l-.175.399a.402.402 0 1 0 .738.324l.176-.398c.113.035.234.058.355.074v.437a.402.402 0 1 0 .805 0v-.437c.078-.012.156-.024.23-.04l.157.403c.062.16.215.258.379.258a.466.466 0 0 0 .144-.024.405.405 0 0 0 .23-.523l-.156-.406c.106-.059.204-.13.301-.2l.309.31a.405.405 0 0 0 .57 0 .399.399 0 0 0 0-.571l-.308-.309c.046-.062.09-.125.132-.191l.399.176a.402.402 0 0 0 .531-.207.402.402 0 0 0-.203-.532l-.399-.175c.032-.118.055-.235.075-.356h.433a.405.405 0 1 0 0-.809zm-3.226 2.422a2.022 2.022 0 0 1-2.02-2.02c0-1.113.906-2.015 2.02-2.015a2.019 2.019 0 0 1 0 4.035zm0 0M9.492 7.082a.348.348 0 0 0 .125-.02c.48-.152.98-.23 1.488-.23a.408.408 0 0 0 .407-.406.405.405 0 0 0-.407-.403c-.593 0-1.175.09-1.738.274a.4.4 0 0 0-.258.508.406.406 0 0 0 .383.277zm0 0M8.156 7.633A.405.405 0 0 0 8.5 7.59c.352-.227.18-.547.172-.563a.399.399 0 0 0-.438-.195.429.429 0 0 0-.136.043l-.024.012c-.183.11-.289.36-.195.547.055.109.16.175.277.199zm0 0M7.027 7.762a5.626 5.626 0 0 0-1.57 3.91c0 .226.18.406.402.406.223 0 .407-.18.407-.406 0-1.254.476-2.445 1.343-3.352a.402.402 0 0 0-.011-.57.406.406 0 0 0-.57.012zm0 0"/>
</svg>
